X: 2441
T: Ballinasloe Fair
R: reel
M: 4/4
K: Adorian
A2{B}AB cBcA|GFGA GECE|A2{B}AB cBca|gedB cAA2|
A2{B}AB cBcA|GFGA GECE|A2{B}AB cBca|gedB cdef||
gc (3ccc gcac|gc (3ccc Bcde|gc (3ccc ac (3ccc|agab gede|
gc (3ccc gcac|gc (3ccc B2 (3dcB|AGAB cBca|gedB cAA2||
"Variation" g~g2f gbaf|gcBc dcde|gc (3ccc ac (3ccc|agab gede|
gc (3ccc gcac|gc (3ccc B2 (3dcB|AGAB cBca|gedB cAA2||

